outputs/icons/maps/flight_sharp.svg

<svg xmlns="http://www.w3.org/2000/svg" width="1200" height="1200" fill="none"><g clip-path="url(#a)"><path fill="#000" d="M1050 800V700L650 450V175c0-41.5-33.5-75-75-75s-75 33.5-75 75v275L100 700v100l400-125v275l-100 75v75l175-50 175 50v-75l-100-75V675z"/></g><defs><clipPath id="a"><path fill="#fff" d="M0 0h1200v1200H0z"/></clipPath></defs></svg>

<svg width="1200" height="1200" viewBox="0 0 1200 1200" fill="none" xmlns="http://www.w3.org/2000/svg"><g clip-path="url(#clip0_124_948)"><path d="M1050 800V700L650 450V175C650 133.5 616.5 100 575 100C533.5 100 500 133.5 500 175V450L100 700V800L500 675V950L400 1025V1100L575 1050L750 1100V1025L650 950V675L1050 800Z" fill="black"/></g><defs><clipPath id="clip0_124_948"><path width="24" fill="white" d="M0 0H1200V1200H0V0z"/></clipPath></defs></svg>
